!!!COM: Debussy, (Achille-)Claude
!!!OTL: Ariettes oubliées (Forgotten Songs) for Voice and Piano
!!!OMV: No. 5: Green
!!!example: 151
!!!work: Deb-2
**kern	**kern	**dynam	**kern	**dynam
*part2	*part2	*part2	*part1	*part1
*staff3	*staff2	*	*staff1	*
*I"Piano	*	*	*I"Soprano Solo	*
*I'Pno.	*	*	*I'S. Solo	*
*clefF4	*clefG2	*	*clefG2	*
*k[b-e-a-d-g-c-]	*k[b-e-a-d-g-c-]	*	*k[b-e-a-d-g-c-]	*
*G-:	*G-:	*	*G-:	*
*M6/8	*M6/8	*	*M6/8	*
=5	=	=	=	=
*^	*	*	*	*
(16%3AA-L 16%3E-	4.ryy	8r	.	16%3r	.
.	.	(8ee-L 8eee-	pp	.	.
[16%3A-J) [16%3c- [16%3e-	.	.	.	16%3a-	p
.	.	8a-J) 8aa-	.	.	.
(4.A-] 4.c-] 4.e-]	[4.C-	8r	.	(16%3b-L	.
.	.	(8ee-L 8eee-	.	.	.
.	.	.	.	16%3cc-J)	.
.	.	8aa-J) 8aaa-	.	.	.
=6	=6	=6	=6	=6	=6
4.f-X	2.C-] 2.F 2.A-	8r	.	(16%3cc-L	.
.	.	(8ee-L 8eee-	.	.	.
.	.	.	.	16%3ee-J)	.
.	.	8a-J) 8aa-	.	.	.
4.fn)	.	8r	.	4ee-	.
.	.	(8ee-L 8eee-	.	.	.
.	.	8aa-J) 8aaa-	.	(8ee-	.
=7	=7	=7	=7	=7	=7
(16%3AA-L 16%3E-	4.ryy	8r	.	4aa-	.
.	.	(8ee-L 8eee-	pp	.	.
[16%3A-J) [16%3c- [16%3e-	.	.	.	.	.
.	.	8a-J) 8aa-	.	8ee-	.
(4.A-] 4.c-] 4.e-]	[4.C-	8r	.	8cc-L	.
.	.	(8ee-L 8eee-	.	8b-	.
.	.	8aa-J) 8aaa-	.	8cc-J	.
=8	=8	=8	=8	=8	=8
4.f-X	2.C-] 2.F 2.A-	8r	.	4.b-	.
.	.	(8ee-L 8eee-	.	.	.
.	.	8a-J) 8aa-	.	.	.
4.fn)	.	8r	.	4a-)	.
.	.	(8ee-L 8eee-	.	.	.
.	.	8aa-J) 8aaa-	.	8r	.
*v	*v	*	*	*	*
=9	=9	=9	=9	=9
(2.DD- 2.F 2.c- 2.e-	8r	>	16%3r	.
.	(8ee-'L	.	.	.
.	.	.	16%3a-~	p
.	8a-'J	.	.	.
.	4.ee-'~)	.	16%3cc-~L	.
.	.	.	16%3ee-~J	.
=10	=10	=10	=10	=10
2.GG-) 2.F-X 2.B- 2.d-	8r	]	16%3b-~L	.
.	(8A--'L	.	.	.
.	.	.	16%3dd-~J	.
.	8D-'J	.	.	.
.	4.A--'~)	.	4.ee-~	.
=11	=11	=11	=11	=11
!!linebreak:original
(2.DD- 2.Fn 2.c- 2.e-	8r	p	8r	.
.	(8ee-'L	>	8ffL	.
.	8a-'J	.	8ee-J	.
.	4.ee-'~)	.	8dd-L	.
!	!	!	!LO:TX:t=rit.	!
.	.	.	8cc-	.
.	.	.	8ee-J	.
=12	=12	=12	=12	=12
*	*^	*	*	*
2.GG-) 2.F-X 2.B- 2.d-	4r	8r	]	(4.b-	.
.	.	(8G-'L	.	.	.
.	8r	8D-'J	.	.	.
.	8r	4.A-')	.	4.a-)	.
.	(8a-L	.	.	.	.
.	8d-J)	.	.	.	.
*	*v	*v	*	*	*
==	==	==	==	==
*-	*-	*-	*-	*-
!!!CDT: 1862/08/22-1918/03/25
!!!CBL: St Germain-en-Laye, France
!!!CDL: Paris, France
!!!CNT: French
!!!AGN: Vocal; Solo
!!!MCN:
!!!MDT: 1889/02/02
!!!MGN:
!!!MLC: Paris, France
!!!MPD: 1889
!!!MPN: Bagès, Maurice; Debussy, Claude
!!!ODT: 1887
!!!PDT: 1888
!!!excerpt-start-measure: 5
!!!excerpt-end-measure: 12
!!!excerpt-start-time: 0:06
!!!excerpt-end-time: 0:20
!!!EEV: 2020/01/17
!!!system-decoration: s1{(s2,s3)}
!!!ONB: Converted from MusicXML on 2020/01/17
